src/assets/icons/poison.svg

<svg width="512" height="512" fill="none" xmlns="http://www.w3.org/2000/svg">
  <path 
    fill-rule="evenodd" 
    clip-rule="evenodd" 
    d="M427.821 393.449C479.524 352.108 512 292.376 512 225.95 512 101.161 397.385 0 256 0S0 101.161 0 225.95c0 64.028 30.174 121.836 78.655 162.951-2.938 10.145-4.55 21.18-4.55 32.719 0 49.915 30.162 90.38 67.369 90.38 24.176 0 45.378-17.085 57.263-42.746C210.622 494.915 231.824 512 256 512c22.038 0 41.604-14.196 53.895-36.143C322.186 497.804 341.752 512 363.789 512c37.207 0 67.369-40.465 67.369-90.38 0-9.836-1.172-19.306-3.337-28.171Zm-23.61-163.018c0 63.354-67.865 114.713-151.579 114.713-83.715 0-151.579-51.359-151.579-114.713 0-63.354 67.864-114.713 151.579-114.713 83.714 0 151.579 51.359 151.579 114.713Z" 
    fill="#fff"
    />
</svg>

<svg width="512" height="512" viewBox="0 0 512 512" fill="none" xmlns="http://www.w3.org/2000/svg">
<path fill-rule="evenodd" clip-rule="evenodd" d="M427.821 393.449C479.524 352.108 512 292.376 512 225.95C512 101.161 397.385 0 256 0C114.615 0 0 101.161 0 225.95C0 289.978 30.1737 347.786 78.6553 388.901C75.7171 399.046 74.1052 410.081 74.1052 421.62C74.1052 471.535 104.267 512 141.474 512C165.65 512 186.852 494.915 198.737 469.254C210.622 494.915 231.824 512 256 512C278.038 512 297.604 497.804 309.895 475.857C322.186 497.804 341.752 512 363.789 512C400.996 512 431.158 471.535 431.158 421.62C431.158 411.784 429.986 402.314 427.821 393.449ZM404.211 230.431C404.211 293.785 336.346 345.144 252.632 345.144C168.917 345.144 101.053 293.785 101.053 230.431C101.053 167.077 168.917 115.718 252.632 115.718C336.346 115.718 404.211 167.077 404.211 230.431Z" fill="white"/>
</svg>
